assets/svgs/heart.svg

<?xml version="1.0" encoding="utf-8"?>
<!DOCTYPE svg PUBLIC "-//W3C//DTD SVG 1.1//EN" "http://www.w3.org/Graphics/SVG/1.1/DTD/svg11.dtd">
<svg version="1.1" xmlns="http://www.w3.org/2000/svg" xmlns:xlink="http://www.w3.org/1999/xlink" width="24" height="24" viewBox="0 0 24 24">
<path d="M17.656 2q1.633 0 3.012 0.805t2.184 2.184 0.805 3.012q0 1.172-0.449 2.277t-1.309 1.965l-9.898 9.898-9.898-9.898q-0.859-0.859-1.309-1.965t-0.449-2.277q0-1.633 0.805-3.012t2.184-2.184 3.012-0.805q1.18 0 2.277 0.445t1.965 1.313l1.414 1.414 1.414-1.414q0.859-0.859 1.965-1.309t2.277-0.449zM17.656 4q-0.781 0-1.516 0.297t-1.312 0.875l-2.828 2.828-2.828-2.828q-0.578-0.578-1.313-0.875t-1.516-0.297q-1.094 0-2.012 0.535t-1.453 1.453-0.535 2.012q0 0.781 0.297 1.516t0.875 1.313l8.484 8.484 8.484-8.484q0.578-0.578 0.875-1.313t0.297-1.516q0-1.094-0.535-2.012t-1.453-1.453-2.012-0.535z"></path>
</svg>

<svg xmlns="http://www.w3.org/2000/svg" width="24" height="24" viewBox="0 0 24 24"><path d="M17.656 2q1.633 0 3.012.805t2.184 2.184.805 3.012q0 1.172-.449 2.277t-1.309 1.965l-9.898 9.898-9.898-9.898q-.859-.859-1.309-1.965T.345 8.001q0-1.633.805-3.012t2.184-2.184T6.346 2q1.18 0 2.277.445t1.965 1.313l1.414 1.414 1.414-1.414q.859-.859 1.965-1.309T17.658 2zm0 2q-.781 0-1.516.297t-1.312.875L12 8 9.172 5.172q-.578-.578-1.313-.875T6.343 4q-1.094 0-2.012.535T2.878 5.988 2.343 8q0 .781.297 1.516t.875 1.313l8.484 8.484 8.484-8.484q.578-.578.875-1.313T21.655 8q0-1.094-.535-2.012t-1.453-1.453T17.655 4z"/></svg>
